X:1
T:James Gibb editions
T:When we in holy worship - Barnby
%%score [ ( 1 2 ) ( 3 4 ) ]
L:1/8
Q:1/4=96
M:4/4
K:F
V:1 treble nm="Midi_74"
V:2 treble 
V:3 bass nm="Midi_74"
V:4 bass 
V:1
"^76. 76""^When we in holy worship""^Joseph Barnby\n(1838-96)" A2 | A3 A c2 A2 | G4 F2 || G2 | %4
 A3 A B2 G2 | c6 ||[M:4/4] A2 |"^1" d3 d d2 A2 | (c2 B2) A2 || G2 |"^1" F3 C A2 G2 | F6 || F4 F4 |] %13
V:2
 F2 | F3 F F2 F2 | E4 F2 || F2 | F3 F E2 E2 | F6 ||[M:4/4] F2 | F3 F ^F2 F2 | (G2 D2) D2 || D2 | %10
 C3 C F2 E2 | F6 || D4 C4 |] %13
V:3
 C2 | C3 C A,2 C2 | B,4 A,2 || D2 | C3 C C2 C2 | C6 ||[M:4/4] _E2 | D3 D D2 D2 | D4 C2 || B,2 | %10
 A,3 A, C2 B,2 | A,6 || B,4 [F,A,]4 |] %13
V:4
 F,2 | F,3 F, A,2 F,2 | C,4 D,2 || B,,2 | C,3 C, C,2 B,2 | A,6 ||[M:4/4] F,2 | B,3 B, A,2 D,2 | %8
 (G,2 G,,2) A,,2 || B,,2 | C,3 C, C,2 C,2 | F,6 || B,,4 F,,4 |] %13

